app/dist/common/images/hangjin-technology.svg

<svg height="18" viewBox="0 0 18 18" width="18" xmlns="http://www.w3.org/2000/svg"><path d="m0 0h18v18h-18z" fill="#c10e18"/><g fill="#fbfef9"><path d="m10 5v1.68c.55-.48 2.51-1 3-1.05v-.63zm-5 0h3v8h-3zm3.5 7v1h4.5v-5.5a8.92 8.92 0 0 0 -3 1.5v3z"/><path d="m8.23 9.76v.84c.19-.58 1.41-2.12 3.37-3.06a9.82 9.82 0 0 1 4.4-.95l-.73-.64c-.5 0-1.91.22-3.67 1.11-1.76.9-3 2.17-3.37 2.7z"/><path d="m8.23 8.78v.7c1.62-2.41 5.14-3.48 6.67-3.69l-.92-.16c-3.37.64-5.26 2.41-5.75 3.15z"/></g></svg>

<!-- by TradingView --><svg width="18" height="18" viewBox="0 0 18 18" xmlns="http://www.w3.org/2000/svg"><path fill="#C10E18" d="M0 0h18v18H0z"/><path d="M10 5v1.68c.55-.48 2.51-1 3-1.05V5h-3ZM5 5h3v8H5V5ZM8.5 12v1H13V7.5A8.92 8.92 0 0 0 10 9v3H8.5Z" fill="#FBFEF9"/><path d="M8.23 9.76v.84c.19-.58 1.41-2.12 3.37-3.06a9.82 9.82 0 0 1 4.4-.95l-.73-.64c-.5 0-1.91.22-3.67 1.11-1.76.9-3 2.17-3.37 2.7Z" fill="#FBFEF9"/><path d="M8.23 8.78v.7C9.85 7.07 13.37 6 14.9 5.79l-.92-.16c-3.37.64-5.26 2.41-5.75 3.15Z" fill="#FBFEF9"/></svg>
